dist/images/src/logo-nos.svg

<svg width="93" height="53" viewBox="0 0 93 53" fill="none" xmlns="http://www.w3.org/2000/svg">
<path fill-rule="evenodd" clip-rule="evenodd" d="M7.727 20.7729H0V52.1469H8.362C8.362 52.1469 8.362 35.7689 8.15 34.5989C8.15 34.5989 12.655 41.601 20.377 52.1399H27.429V20.7919H19.127C19.127 20.7919 19.261 35.8159 19.35 37.2959C19.35 37.2959 17.118 33.0799 7.727 20.7729Z" fill="#B2B2B2"/>
<path opacity="0.6" fill-rule="evenodd" clip-rule="evenodd" d="M48.168 8.312C43.715 8.312 40.105 11.939 40.105 16.414C40.105 20.889 43.715 24.516 48.168 24.516C52.622 24.516 56.232 20.889 56.232 16.414C56.232 11.939 52.622 8.312 48.168 8.312ZM64.623 16.444C64.623 25.526 57.296 32.888 48.258 32.888C39.219 32.888 31.892 25.526 31.892 16.444C31.892 7.362 39.219 2.50339e-09 48.258 2.50339e-09C57.296 2.50339e-09 64.623 7.362 64.623 16.444Z" fill="#B2B2B2"/>
<path fill-rule="evenodd" clip-rule="evenodd" d="M92.534 3.94695L88.309 10.823C88.309 10.823 84.739 7.83295 79.679 7.83295C76.109 7.83295 76.436 9.47795 76.436 9.71695C76.436 9.95695 76.124 11.287 82.298 12.617C88.44 13.94 92.951 16.175 92.891 22.782C92.833 29.24 87.951 32.709 79.918 32.709C71.884 32.709 66.944 28.822 66.944 28.822L71.051 22.065C71.051 22.065 75.217 25.098 80.453 25.175C84.56 25.235 84.321 23.38 84.321 23.38C84.321 21.826 82.417 20.928 76.764 19.733C71.11 18.537 67.718 15.607 67.718 10.763C67.718 5.59095 70.828 0.270952 80.052 0.253952C88.026 0.238952 92.534 3.94695 92.534 3.94695Z" fill="#B2B2B2"/>
</svg>

<svg width="93" height="53" fill="none" xmlns="http://www.w3.org/2000/svg"><path fill-rule="evenodd" clip-rule="evenodd" d="M7.727 20.773H0v31.374h8.362s0-16.378-.212-17.548c0 0 4.505 7.002 12.227 17.54h7.052V20.793h-8.302s.134 15.024.223 16.504c0 0-2.232-4.216-11.623-16.523z" fill="#B2B2B2"/><path opacity=".6" fill-rule="evenodd" clip-rule="evenodd" d="M48.168 8.312c-4.453 0-8.063 3.627-8.063 8.102 0 4.475 3.61 8.102 8.063 8.102 4.454 0 8.064-3.627 8.064-8.102 0-4.475-3.61-8.102-8.064-8.102zm16.455 8.132c0 9.082-7.327 16.444-16.365 16.444-9.039 0-16.366-7.362-16.366-16.444C31.892 7.362 39.219 0 48.258 0c9.038 0 16.365 7.362 16.365 16.444z" fill="#B2B2B2"/><path fill-rule="evenodd" clip-rule="evenodd" d="M92.534 3.947l-4.225 6.876s-3.57-2.99-8.63-2.99c-3.57 0-3.243 1.645-3.243 1.884 0 .24-.312 1.57 5.862 2.9 6.142 1.323 10.653 3.558 10.593 10.165-.058 6.458-4.94 9.927-12.973 9.927-8.034 0-12.974-3.887-12.974-3.887l4.107-6.757s4.166 3.033 9.402 3.11c4.107.06 3.868-1.795 3.868-1.795 0-1.554-1.904-2.452-7.557-3.647-5.654-1.196-9.046-4.126-9.046-8.97 0-5.172 3.11-10.492 12.334-10.509 7.974-.015 12.482 3.693 12.482 3.693z" fill="#B2B2B2"/></svg>
